public/assets/icons/status_downandout.svg

<?xml version="1.0" standalone="no"?>
<!DOCTYPE svg PUBLIC "-//W3C//DTD SVG 1.1//EN" "http://www.w3.org/Graphics/SVG/1.1/DTD/svg11.dtd" >
<svg xmlns="http://www.w3.org/2000/svg" xmlns:xlink="http://www.w3.org/1999/xlink" version="1.1" viewBox="0 -64 1024 1024" width="512" height="512">
  <g transform="matrix(1 0 0 -1 0 960)">
   <path fill="currentColor"
d="M512 789q-71 0 -133 -27q-62 -26 -108.5 -72.5t-72.5 -108.5q-27 -62 -27 -133q0 -70 27 -133q26 -62 72.5 -108.5t108.5 -72.5q62 -27 133 -27q70 0 133 27q62 26 108.5 72.5t72.5 108.5q27 63 27 133q0 71 -27 133q-26 62 -72.5 108.5t-108.5 72.5q-63 27 -133 27z
M512 721q47 0 90 -15.5t77 -41.5l-383 -383q-26 34 -41.5 77t-15.5 90q0 57 21 106q22 50 59 87t87 59q49 21 106 21v0zM728 615q27 -34 42 -76.5t15 -90.5q0 -57 -21 -106q-22 -50 -59 -87t-87 -59q-49 -21 -106 -21q-48 0 -90.5 15t-76.5 42l383 383v0z" />
  </g>

</svg>

<?xml version="1.0" encoding="UTF-8" standalone="no"?>
<svg
   version="1.1"
   viewBox="0 -64 1024 1024"
   width="512"
   height="512"
   id="svg488"
   sodipodi:docname="status_downandout.svg"
   inkscape:version="1.2.2 (732a01da63, 2022-12-09)"
   xmlns:inkscape="http://www.inkscape.org/namespaces/inkscape"
   xmlns:sodipodi="http://sodipodi.sourceforge.net/DTD/sodipodi-0.dtd"
   xmlns="http://www.w3.org/2000/svg"
   xmlns:svg="http://www.w3.org/2000/svg">
  <defs
     id="defs492" />
  <sodipodi:namedview
     id="namedview490"
     pagecolor="#ffffff"
     bordercolor="#000000"
     borderopacity="0.25"
     inkscape:showpageshadow="2"
     inkscape:pageopacity="0.0"
     inkscape:pagecheckerboard="0"
     inkscape:deskcolor="#d1d1d1"
     showgrid="false"
     inkscape:zoom="1.6191406"
     inkscape:cx="236.23643"
     inkscape:cy="256.30881"
     inkscape:window-width="1920"
     inkscape:window-height="1009"
     inkscape:window-x="-8"
     inkscape:window-y="-8"
     inkscape:window-maximized="1"
     inkscape:current-layer="svg488" />
  <g
     transform="matrix(1,0,0,-1,0,896)"
     id="g486">
    <path
       fill="currentColor"
       d="M 512,789 Q 441,789 379,762 317,736 270.5,689.5 224,643 198,581 171,519 171,448 171,378 198,315 224,253 270.5,206.5 317,160 379,134 q 62,-27 133,-27 70,0 133,27 62,26 108.5,72.5 Q 800,253 826,315 q 27,63 27,133 0,71 -27,133 -26,62 -72.5,108.5 Q 707,736 645,762 582,789 512,789 Z m 0,-68 q 47,0 90,-15.5 Q 645,690 679,664 L 296,281 q -26,34 -41.5,77 -15.5,43 -15.5,90 0,57 21,106 22,50 59,87 37,37 87,59 49,21 106,21 z M 728,615 q 27,-34 42,-76.5 15,-42.5 15,-90.5 0,-57 -21,-106 -22,-50 -59,-87 -37,-37 -87,-59 -49,-21 -106,-21 -48,0 -90.5,15 -42.5,15 -76.5,42 l 383,383 z"
       id="path484" />
  </g>
</svg>
